X:1
T:WILD TOM-TOM.
T:Op. 122
T:To Tom Brier.
T:INTERMEZZO
T:WILD TOM-TOM.
T:CHRISTOPH SCHMETTERER
C:CHRISTOPH SCHMETTERER
C:Op. 122
%%score { ( 1 3 ) | 2 }
L:1/8
Q:1/2=120
M:4/4
K:Bb
V:1 treble nm="Piano" snm="Pno."
V:3 treble 
V:2 bass 
V:1
 d2 d^c d2 dc | d2 c2 B2 A2 | d2 d^c dedc | d2 z2 [^Fcd]4 |: d2 d^c d2 dc | d2 d^c ed=cB | %6
 c2 c=B c2 e2 | G4 z4 | c2 c=B c2 cB | c2 cd fedc | B2 [FBd]4 [Bdf]2 | %11
 [Aeg]2 [Aef]2 [Aeg]2 [Aef]2 | [Bdfb]2 ba b2 ba | b2 ba c'bab | [egc']2 [egc']4 [gc'e']2 | %15
 [eg]2 [db]2 [ca]2 [Bg]2 | [Bdf]2 [Bdg]4 [Bdf]2 | [Acg] [Acf]2 [Acg] [Acf]2 [fad']2 | %18
 [Bdfb]4 z2 [FAd]2 |1 [DFB]2 z2 [^Fcd]4 :|2 [DFB]2 z2 [DFB]2 z2 |: [EGc]2 cB c4- | c2 B2 c2 ^c2 | %23
 d2 d^c d4- | d2 f2 g2 f2 | [cea]3 [ce_a] [ceg]2 [ce_g]2 | [Acf]2 [Ac=e]2 [Ac_e]4 | %27
 [dfb]3 [dfa] [Bdg]2 [Bd_g]2 | [Bdf]2 [Bd=e]2 [Bdf]4 | [EGc]2 cB c4- | c2 B2 c2 ^c2 | d2 d^c d4- | %32
 d2 f2 g2 f2 | [cea]3 [ce_a] [ceg]2 [ce_g]2 | [Acf]2 [Ac=e]2 [Ac_e]2 [cea]2 | [Bdfb]8- |1 %36
 [Bdfb]2 z2 z4 :|2 [Bdfb]2 z2 [^Fcd]4 || d2 d^c d2 dc | d2 d^c ed=cB | c2 c=B c2 e2 | G4 z4 | %42
 c2 c=B c2 cB | c2 cd fedc | B2 [FBd]4 [Bdf]2 | [Aeg]2 [Aef]2 [Aeg]2 [Aef]2 | [Bdfb]2 ba b2 ba | %47
 b2 ba c'bab | [egc']2 [egc']4 [gc'e']2 | [eg]2 [db]2 [ca]2 [Bg]2 | [Bdf]2 [Bdg]4 [Bdf]2 | %51
 [Acg] [Acf]2 [Acg] [Acf]2 [fad']2 | [Bdfb]4 z2 [FAd]2 | [DFB]2 z2 [DFB]2 z2 || %54
[K:Eb] [Ge]3 [Gd] [Gc]4- | [Gc]2 [GB]2 [Gc]2 [Ge]2 | [Ad]3 [Ac] [AB]4- | [AB]2 F2 G2 A2 | %58
 [EG]3 [DF] [CE]4- | [CE]2 C2 D2 E2 | [=B,D]8- | [B,D]2 B2 c2 d2 | [Ge]3 [Gd] [Gc]4- | %63
 [Gc]2 [GB]2 [Gc]2 [Ge]2 | [^Fd]3 [F=B] [F=A]4- | [FA]2 [^F=B]2 [F^c]2 [Fd]2 | %66
 [G=e]3 [G^c] [G=B]2 [G=A]2 | [G=e]3 [G^c] [G=B]2 [Gc]2 | [^Fd]2 d^c de=ef | ^fga=a b=bc'd' | %70
 [ge']3 [gd'] [gc']4- | [gc']2 [gb]2 [gc']2 [ge']2 | [ad']3 [ac'] [ab]4- | [ab]2 f2 g2 a2 | %74
 [eg]3 [df] [ce]4- | [ce]2 c2 d2 e2 | [=Bd]8- | [Bd]2 _B2 c2 d2 | [Ge]3 [Gd] [Gc]4- | %79
 [Gc]2 [GB]2 [Gc]2 [Ge]2 | [Af]3 [Ae] [Ac]4- | [Ac]2 c2 d2 e2 | [Gf]3 [Ge] [Gd]2 [Gc]2 | %83
 [Ae]3 [Ad] [Ac]2 [Af]2 | [Ge]3 [GB] [Ac]2 [Bdg]2 | [GBe]4 [EGBe]4 | d3 B G4 | z2 =A2 B2 c2 | %88
 d2 d^c d2 dc | d2 G2 B2 d2 | e3 c G4 | z2 c2 e2 f2 | g2 g^f g2 gf | g2 c2 e2 f2 | g3 e c4 | %95
 a3 f d4 | b3 a f2 d2 | B8 | [ge']3 [gd'] [gc']4 | z2 [gb]2 [gc']2 [ge']2 | [ad']3 [ac'] [ab]4 | %101
 z2 f2 g2 a2 | [eg]3 [df] [ce]4 | z2 c2 d2 e2 | [=Bd]8 | z2 B2 c2 d2 | [Ge]3 [Gd] [Gc]4 | %107
 z2 [GB]2 [Gc]2 [Ge]2 | [^Fd]3 [F=B] [F=A]4 | z2 [^F=B]2 [F^c]2 [Fd]2 | %110
 [G=e]3 [G^c] [G=B]2 [G=A]2 | [G=e]3 [G^c] [G=B]2 [Gc]2 | [^Fd]2 d^c de=ef | ^fga=a b=bc'd' | %114
 [ge']3 [gd'] [gc']4- | [gc']2 [gb]2 [gc']2 [ge']2 | [ad']3 [ac'] [ab]4- | [ab]2 f2 g2 a2 | %118
 [eg]3 [df] [ce]4- | [ce]2 c2 d2 e2 | [=Bd]8- | [Bd]2 _B2 c2 d2 | [Ge]3 [Gd] [Gc]4- | %123
 [Gc]2 [GB]2 [Gc]2 [Ge]2 | [Af]3 [Ae] [Ac]4- | [Ac]2 c2 d2 e2 | [Gf]3 [Ge] [Gd]2 [Gc]2 | %127
 [Ae]3 [Ad] [Ac]2 [Af]2 | [Ge]3 [GB] [Ac]2 [Bdg]2 | [GBe]4 [EGBe]4 |] %130
V:2
 D2 D^C D2 DC | D2 C2 B,2 A,2 | [B,D]4 [^F,A,CD]4 | [G,B,D]2 z2 [D,D]4 |: %4
 [G,,G,]2 .[B,D]2 D,2 .[B,D]2 | G,2 .[B,D]2 D,2 .[G,B,D]2 | C,2 .[E,G,C]2 G,,2 .[E,G,C]2 | %7
 C,2 .[E,G,C]2 G,,2 .[E,G,C]2 | A,,2 .[E,F,C]2 F,,2 .[E,F,A,]2 | C,2 .[E,F,A,]2 F,,2 .[E,F,A,]2 | %10
 B,,2 .[D,F,B,]2 F,,2 .[D,F,B,]2 | C,2 .[E,F,A,]2 F,,2 .[E,F,A,]2 | %12
 B,,2 .[D,F,B,]2 A,,2 .[D,F,B,]2 | G,,2 .[D,F,B,]2 F,,2 .[D,F,B,]2 | %14
 E,,2 .[E,G,B,]2 B,,2 .[E,G,B,]2 | [E,,E,]2 [D,,D,]2 [E,,E,]2 [=E,,=E,]2 | %16
 [F,,F,]2 .[D,F,B,]2 B,,2 .[D,F,B,]2 | C,2 .[E,F,A,]2 F,,2 .[E,F,A,]2 | [B,,B,]2 [F,,F,]4 [D,D]2 |1 %19
 [B,,B,]4 [D,,D,]4 :|2 [B,,B,]4 [B,,,B,,]4 |: [E,,E,]2 .[G,B,]2 B,,2 .[G,B,]2 | %22
 E,2 .[G,B,]2 [G,,G,]2 [_G,,_G,]2 | [F,,F,]2 .[D,F,B,]2 B,,2 .[D,F,B,]2 | %24
 F,,2 .[D,F,B,]2 B,,2 .[D,F,B,]2 | C,2 .[E,F,A,]2 F,,2 .[E,F,A,]2 | %26
 C,2 .[E,F,A,]2 F,,2 .[E,F,A,]2 | B,,2 .[D,F,B,]2 F,,2 .[D,F,B,]2 | %28
 B,,2 .[D,F,B,]2 F,,2 .[D,F,B,]2 | [E,,E,]2 .[G,B,]2 B,,2 .[G,B,]2 | %30
 E,2 .[G,B,]2 [G,,G,]2 [_G,,_G,]2 | [F,,F,]2 .[D,F,B,]2 B,,2 .[D,F,B,]2 | %32
 F,,2 .[D,F,B,]2 B,,2 .[D,F,B,]2 | C,2 .[E,F,A,]2 F,,2 .[E,F,A,]2 | %34
 C,2 .[E,F,A,]2 F,,2 .[E,F,A,]2 | [B,,,B,,]3 F,, G,,2 F,,2 |1 B,,2 z2 [B,,,B,,]4 :|2 %37
 B,,2 z2 [D,,D,]4 || [G,,G,]2 .[B,D]2 D,2 .[B,D]2 | G,2 .[B,D]2 D,2 .[G,B,D]2 | %40
 C,2 .[E,G,C]2 G,,2 .[E,G,C]2 | C,2 .[E,G,C]2 G,,2 .[E,G,C]2 | A,,2 .[E,F,C]2 F,,2 .[E,F,A,]2 | %43
 C,2 .[E,F,A,]2 F,,2 .[E,F,A,]2 | B,,2 .[D,F,B,]2 F,,2 .[D,F,B,]2 | %45
 C,2 .[E,F,A,]2 F,,2 .[E,F,A,]2 | B,,2 .[D,F,B,]2 A,,2 .[D,F,B,]2 | %47
 G,,2 .[D,F,B,]2 F,,2 .[D,F,B,]2 | E,,2 .[E,G,B,]2 B,,2 .[E,G,B,]2 | %49
 [E,,E,]2 [D,,D,]2 [E,,E,]2 [=E,,=E,]2 | [F,,F,]2 .[D,F,B,]2 B,,2 .[D,F,B,]2 | %51
 C,2 .[E,F,A,]2 F,,2 .[E,F,A,]2 | [B,,B,]2 [F,,F,]4 [D,D]2 | [B,,B,]4 [B,,,B,,]4 || %54
[K:Eb] [E,,E,]2 .[G,B,E]2 B,,2 .[G,B,E]2 | E,2 .[G,B,E]2 B,,2 .[G,B,E]2 | %56
 F,2 .[A,B,D]2 B,,2 .[A,B,D]2 | F,2 .[A,B,D]2 B,,2 .[A,B,D]2 | C,2 .[E,G,C]2 G,,2 .[E,G,C]2 | %59
 C,2 .[E,G,C]2 G,,2 .[E,G,C]2 | [G,,G,]2 G,^F, G,2 G,F, | G,2 z2 z4 | %62
 [E,,E,]2 .[G,B,E]2 B,,2 .[G,B,E]2 | E,2 .[G,B,E]2 B,,2 .[G,B,E]2 | %64
 D,2 .[^F,=A,D]2 =A,,2 .[F,A,D]2 | D,2 .[^F,=A,D]2 =A,,2 .[F,A,D]2 | %66
 =E,2 .[G,=A,^C]2 =A,,2 .[G,A,C]2 | =E,2 .[G,=A,^C]2 =A,,2 .[G,A,C]2 | D,2 z2 z4 | z8 | %70
 [E,,E,]2 .[G,B,E]2 B,,2 .[G,B,E]2 | E,2 .[G,B,E]2 B,,2 .[G,B,E]2 | F,2 .[A,B,D]2 B,,2 .[A,B,D]2 | %73
 F,2 .[A,B,D]2 B,,2 .[A,B,D]2 | C,2 .[E,G,C]2 G,,2 .[E,G,C]2 | C,2 .[E,G,C]2 G,,2 .[E,G,C]2 | %76
 [G,,G,]2 G,^F, G,2 G,F, | G,2 z2 z4 | E,2 .[G,B,E]2 B,,2 .[G,B,E]2 | %79
 E,2 .[G,B,E]2 B,,2 .[G,B,E]2 | A,,2 .[A,CE]2 A,,2 .[A,CE]2 | =A,,2 .[^F,CE]2 A,,2 .[F,CE]2 | %82
 B,,2 .[G,B,E]2 E,2 .[G,B,E]2 | F,2 .[A,B,D]2 B,,2 .[A,B,D]2 | [E,G,B,]6 [D,F,B,]2 | %85
 [E,G,B,]2 z2 [E,,E,]4 | D3 B, G,4 | z2 =A,2 B,2 C2 | [G,B,D]4 [^F,=A,D]4 | [G,B,D]4 z4 | %90
 E3 C G,4 | z2 C2 E2 F2 | [CEG]4 [=B,DG]4 | [CEG]2 x2 x4 | x8 | x8 | x8 | %97
 [B,,B,]2 [A,,A,]2 [G,,G,]2 [F,,F,]2 | [E,,E,]2 .[G,B,E]2 B,,2 .[G,B,E]2 | %99
 E,2 .[G,B,E]2 B,,2 .[G,B,E]2 | F,2 .[A,B,D]2 B,,2 .[A,B,D]2 | F,2 .[A,B,D]2 B,,2 .[A,B,D]2 | %102
 C,2 .[E,G,C]2 G,,2 .[E,G,C]2 | C,2 .[E,G,C]2 G,,2 .[E,G,C]2 | [G,,G,]2 G,^F, G,2 G,F, | %105
 G,2 z2 z4 | [E,,E,]2 .[G,B,E]2 B,,2 .[G,B,E]2 | E,2 .[G,B,E]2 B,,2 .[G,B,E]2 | %108
 D,2 .[^F,=A,D]2 =A,,2 .[F,A,D]2 | D,2 .[^F,=A,D]2 =A,,2 .[F,A,D]2 | %110
 =E,2 .[G,=A,^C]2 =A,,2 .[G,A,C]2 | =E,2 .[G,=A,^C]2 =A,,2 .[G,A,C]2 | D,2 z2 z4 | z8 | %114
 [E,,E,]2 .[G,B,E]2 B,,2 .[G,B,E]2 | E,2 .[G,B,E]2 B,,2 .[G,B,E]2 | F,2 .[A,B,D]2 B,,2 .[A,B,D]2 | %117
 F,2 .[A,B,D]2 B,,2 .[A,B,D]2 | C,2 .[E,G,C]2 G,,2 .[E,G,C]2 | C,2 .[E,G,C]2 G,,2 .[E,G,C]2 | %120
 [G,,G,]2 G,^F, G,2 G,F, | G,2 z2 z4 | E,2 .[G,B,E]2 B,,2 .[G,B,E]2 | %123
 E,2 .[G,B,E]2 B,,2 .[G,B,E]2 | A,,2 .[A,CE]2 A,,2 .[A,CE]2 | =A,,2 .[^F,CE]2 A,,2 .[F,CE]2 | %126
 B,,2 .[G,B,E]2 E,2 .[G,B,E]2 | F,2 .[A,B,D]2 B,,2 .[A,B,D]2 | [E,G,B,]6 [D,F,B,]2 | %129
 [E,G,B,]2 z2 [E,,E,]4 |] %130
V:3
 x8 | x8 | x8 | x8 |: x8 | x8 | x8 | x8 | x8 | x8 | x8 | x8 | x8 | x8 | x8 | x8 | x8 | x8 | x8 |1 %19
 x8 :|2 x8 |: x8 | x8 | x8 | x8 | x8 | x8 | x8 | x8 | x8 | x8 | x8 | x8 | x8 | x8 | x8 |1 x8 :|2 %37
 x8 || x8 | x8 | x8 | x8 | x8 | x8 | x8 | x8 | x8 | x8 | x8 | x8 | x8 | x8 | x8 | x8 ||[K:Eb] x8 | %55
 x8 | x8 | x8 | x8 | x8 | x8 | x8 | x8 | x8 | x8 | x8 | x8 | x8 | x8 | x8 | x8 | x8 | x8 | x8 | %74
 x8 | x8 | x8 | x8 | x8 | x8 | x8 | x8 | x8 | x8 | x8 | x8 | x8 | x8 | x8 | x8 | x8 | x8 | x8 | %93
 x2 C2 E2 F2 | G3 E C4 | A3 F D4 | B3 A F2 D2 | x8 | x8 | x8 | x8 | x8 | x8 | x8 | x8 | x8 | x8 | %107
 x8 | x8 | x8 | x8 | x8 | x8 | x8 | x8 | x8 | x8 | x8 | x8 | x8 | x8 | x8 | x8 | x8 | x8 | x8 | %126
 x8 | x8 | x8 | x8 |] %130

